X: 23800
T: Little Jimmy McKiernan's
R: reel
M: 4/4
K: Edorian
BAFE D2 FA|B2 Bd efdB|BAFE DE F/G/A|BAdA FEE:|
Beef d2 fd|B/c/d Ad BdAF|BeeB defe|dBAd FEE:|

